public/svg/spiral-left.svg

<svg width="240" height="1010" viewBox="0 0 240 1010" fill="none" xmlns="http://www.w3.org/2000/svg">
<path d="M59.2828 286.447C78.0177 342.388 63.8882 403.468 25.8564 457.01C-12.1753 510.551 -74.0996 556.536 -150.907 582.259C-227.715 607.982 -304.844 608.567 -367.45 588.73C-430.057 568.892 -478.122 528.641 -496.857 472.7C-515.592 416.759 -501.463 355.678 -463.431 302.137C-425.399 248.596 -363.475 202.611 -286.667 176.888C-209.86 151.165 -132.731 150.58 -70.1246 170.417C-7.51801 190.255 40.5479 230.506 59.2828 286.447Z" stroke="#21558A" stroke-opacity="0.3" stroke-width="0.5"/>
<path d="M87.2286 369.891C105.964 425.833 91.834 486.913 53.8022 540.454C15.7705 593.996 -46.1538 639.98 -122.961 665.703C-199.769 691.427 -276.898 692.011 -339.504 672.174C-402.111 652.337 -450.177 612.086 -468.912 556.145C-487.647 500.204 -473.517 439.123 -435.485 385.582C-397.454 332.041 -335.529 286.056 -258.722 260.333C-181.914 234.61 -104.785 234.025 -42.1788 253.862C20.4278 273.699 68.4937 313.95 87.2286 369.891Z" stroke="#21558A" stroke-opacity="0.3" stroke-width="0.5"/>
<path d="M115.175 453.336C133.91 509.277 119.78 570.358 81.7482 623.899C43.7166 677.44 -18.2078 723.425 -95.0154 749.148C-171.823 774.871 -248.952 775.456 -311.558 755.619C-374.165 735.782 -422.231 695.531 -440.966 639.59C-459.7 583.648 -445.571 522.568 -407.539 469.027C-369.508 415.485 -307.583 369.501 -230.776 343.778C-153.968 318.054 -76.839 317.47 -14.2327 337.307C48.3738 357.144 96.4397 397.395 115.175 453.336Z" stroke="#21558A" stroke-opacity="0.3" stroke-width="0.5"/>
<path d="M31.3367 203.002C50.0717 258.943 35.9421 320.024 -2.08968 373.565C-40.1213 427.106 -102.046 473.091 -178.853 498.814C-255.661 524.537 -332.79 525.122 -395.396 505.285C-458.003 485.448 -506.069 445.197 -524.803 389.255C-543.538 333.314 -529.409 272.234 -491.377 218.692C-453.345 165.151 -391.421 119.166 -314.613 93.4433C-237.806 67.7201 -160.677 67.1354 -98.0706 86.9725C-35.4641 106.81 12.6018 147.061 31.3367 203.002Z" stroke="#21558A" stroke-opacity="0.3" stroke-width="0.5"/>
<path d="M171.066 620.226C189.801 676.167 175.672 737.247 137.64 790.789C99.6084 844.33 37.6841 890.314 -39.1235 916.038C-115.931 941.761 -193.06 942.346 -255.666 922.508C-318.273 902.671 -366.339 862.42 -385.074 806.479C-403.809 750.538 -389.679 689.457 -351.647 635.916C-313.616 582.375 -251.691 536.39 -174.884 510.667C-98.0761 484.944 -20.9472 484.359 41.6591 504.196C104.266 524.033 152.332 564.284 171.066 620.226Z" stroke="#21558A" stroke-opacity="0.3" stroke-width="0.5"/>
<path d="M143.121 536.781C161.856 592.722 147.726 653.803 109.694 707.344C71.6626 760.885 9.73829 806.87 -67.0693 832.593C-143.877 858.316 -221.006 858.901 -283.612 839.064C-346.219 819.227 -394.285 778.976 -413.02 723.034C-431.754 667.093 -417.625 606.013 -379.593 552.471C-341.561 498.93 -279.637 452.946 -202.83 427.222C-126.022 401.499 -48.893 400.914 13.7133 420.752C76.3199 440.589 124.386 480.84 143.121 536.781Z" stroke="#21558A" stroke-opacity="0.3" stroke-width="0.5"/>
</svg>

<svg xmlns="http://www.w3.org/2000/svg" width="240" height="1010" fill="none"><path stroke="#21558A" stroke-opacity=".3" stroke-width=".5" d="M59.283 286.447c18.735 55.941 4.605 117.021-33.427 170.563S-74.1 556.536-150.907 582.259c-76.808 25.723-153.937 26.308-216.543 6.471-62.607-19.838-110.672-60.089-129.407-116.03s-4.606-117.022 33.426-170.563 99.956-99.526 176.764-125.249c76.807-25.723 153.936-26.308 216.542-6.471 62.607 19.838 110.673 60.089 129.408 116.03Z"/><path stroke="#21558A" stroke-opacity=".3" stroke-width=".5" d="M87.229 369.891c18.735 55.942 4.605 117.022-33.427 170.563-38.031 53.542-99.956 99.526-176.763 125.249-76.808 25.724-153.937 26.308-216.543 6.471-62.607-19.837-110.673-60.088-129.408-116.029s-4.605-117.022 33.427-170.563 99.956-99.526 176.763-125.249c76.808-25.723 153.937-26.308 216.543-6.471C20.428 273.699 68.494 313.95 87.23 369.891Z"/><path stroke="#21558A" stroke-opacity=".3" stroke-width=".5" d="M115.175 453.336c18.735 55.941 4.605 117.022-33.427 170.563s-99.956 99.526-176.763 125.249c-76.808 25.723-153.937 26.308-216.543 6.471-62.607-19.837-110.673-60.088-129.408-116.029-18.734-55.942-4.605-117.022 33.427-170.563 38.031-53.542 99.956-99.526 176.763-125.249 76.808-25.724 153.937-26.308 216.543-6.471 62.607 19.837 110.673 60.088 129.408 116.029Z"/><path stroke="#21558A" stroke-opacity=".3" stroke-width=".5" d="M31.337 203.002c18.735 55.941 4.605 117.022-33.427 170.563s-99.956 99.526-176.763 125.249c-76.808 25.723-153.937 26.308-216.543 6.471-62.607-19.837-110.673-60.088-129.407-116.03s-4.606-117.021 33.426-170.563 99.956-99.526 176.764-125.249c76.807-25.723 153.936-26.308 216.542-6.47C-35.464 106.81 12.602 147.06 31.337 203.002ZM171.066 620.226c18.735 55.941 4.606 117.021-33.426 170.563S37.684 890.314-39.123 916.038c-76.808 25.723-153.937 26.308-216.543 6.47-62.607-19.837-110.673-60.088-129.408-116.029s-4.605-117.022 33.427-170.563 99.956-99.526 176.763-125.249c76.808-25.723 153.937-26.308 216.543-6.471 62.607 19.837 110.673 60.088 129.407 116.03Z"/><path stroke="#21558A" stroke-opacity=".3" stroke-width=".5" d="M143.121 536.781c18.735 55.941 4.605 117.022-33.427 170.563S9.738 806.87-67.069 832.593c-76.808 25.723-153.937 26.308-216.543 6.471-62.607-19.837-110.673-60.088-129.408-116.03s-4.605-117.021 33.427-170.563 99.956-99.525 176.763-125.249c76.808-25.723 153.937-26.308 216.543-6.47 62.607 19.837 110.673 60.088 129.408 116.029Z"/></svg>
